src/assets/outline/RecordCircle.svg

<svg width="24" height="24" viewBox="0 0 24 24"  xmlns="http://www.w3.org/2000/svg">
<path d="M11.9702 22.75C6.05021 22.75 1.22021 17.93 1.22021 12C1.22021 6.07 6.05021 1.25 11.9702 1.25C17.8902 1.25 22.7202 6.07 22.7202 12C22.7202 17.93 17.9002 22.75 11.9702 22.75ZM11.9702 2.75C6.87021 2.75 2.72021 6.9 2.72021 12C2.72021 17.1 6.87021 21.25 11.9702 21.25C17.0702 21.25 21.2202 17.1 21.2202 12C21.2202 6.9 17.0702 2.75 11.9702 2.75Z" />
<path d="M12 16.98C9.25002 16.98 7.02002 14.75 7.02002 12C7.02002 9.25002 9.25002 7.02002 12 7.02002C14.75 7.02002 16.98 9.25002 16.98 12C16.98 14.75 14.75 16.98 12 16.98ZM12 8.52002C10.08 8.52002 8.52002 10.08 8.52002 12C8.52002 13.92 10.08 15.48 12 15.48C13.92 15.48 15.48 13.92 15.48 12C15.48 10.08 13.92 8.52002 12 8.52002Z" />
</svg>

<?xml version="1.0" encoding="UTF-8"?>
<svg width="24" height="24" viewBox="0 0 24 24" xmlns="http://www.w3.org/2000/svg">
 <path d="m11.97 22.75c-5.92 0-10.75-4.82-10.75-10.75s4.83-10.75 10.75-10.75c5.92 0 10.75 4.82 10.75 10.75s-4.82 10.75-10.75 10.75zm0-20c-5.1 0-9.25 4.15-9.25 9.25s4.15 9.25 9.25 9.25c5.1 0 9.25-4.15 9.25-9.25s-4.15-9.25-9.25-9.25z"/>
 <path d="m12 16.98c-2.75 0-4.98-2.23-4.98-4.98 0-2.75 2.23-4.98 4.98-4.98 2.75 0 4.98 2.23 4.98 4.98 0 2.75-2.23 4.98-4.98 4.98zm0-8.46c-1.92 0-3.48 1.56-3.48 3.48s1.56 3.48 3.48 3.48 3.48-1.56 3.48-3.48-1.56-3.48-3.48-3.48z"/>
</svg>
